!!!!SEGMENT: pl-wtm--r-1155_dobrzynski-ignacy-feliks--wojak.krn
!!!cenid: 18xx:1760
!!!COM: Dobrzyński, Ignacy Feliks
!!!COM-rism: pe30020642
!!!CDT: 1807/02/15-1867/10/09
!!!CNT: Polish
!!!OTL: Wojak
!!!PDT:
!!!AGN: Secular
!!!SMS-siglum: PL-Wtm
!!!SMS-shelfmark: R 1155
!!!NIFC-rismID: 1001056452
!!!URL-scan: http://repozytorium.nifc.pl/skany/pl-wtm-nut--r1155
!!!ONB-nifc:
!!!SMS-variant:
!!!SMS-altvar:
**kern	**kern	**dynam	**kern	**text	**text	**text	**dynam
*part2	*part2	*part2	*part1	*part1	*part1	*part1	*part1
*staff3	*staff2	*	*staff1	*staff1	*staff1	*staff1	*
*I"Fortepian	*	*	*I"Śpiew	*	*	*	*
*I'P-no	*	*	*I'Ś.	*	*	*	*
*clefF4	*clefG2	*	*clefG2	*	*	*	*
*k[f#c#g#d#]	*k[f#c#g#d#]	*	*k[f#c#g#d#]	*	*	*	*
*M2/4	*M2/4	*	*M2/4	*	*	*	*
=1	=1	=1	=1	=1	=1	=1	=1
!	!LO:TX:a:i:t=Trąbka	!	!LO:TX:a:i:t=Allegro	!	!	!	!
8GG#/L 8EE/	8e/L 8G#'/	f	2r	.	.	.	.
8BB/	16B'/L	.	.	.	.	.	.
.	16B'/JJ	.	.	.	.	.	.
8E/	8B'/L	.	.	.	.	.	.
8BB/J	8B'/J	.	.	.	.	.	.
=2||	=2||	=2||	=2||	=2||	=2||	=2||	=2||
!LO:TX:i:b:t=[segno]	!LO:TX:a:t=[segno]	!	!LO:TX:a:t=[segno]	!	!	!	!
8AA/L 8EE/	8f#/L	.	2r	.	.	.	.
8BB/	16B/L	.	.	.	.	.	.
.	16B/JJ	.	.	.	.	.	.
8D#/	8B/L	.	.	.	.	.	.
8BB/J	8B/J	.	.	.	.	.	.
=3	=3	=3	=3	=3	=3	=3	=3
8GG#/L 8EE/	8g#/L	.	2r	.	.	.	.
8BB/	16B/L	.	.	.	.	.	.
.	16B/JJ	.	.	.	.	.	.
8E/	8B/L	.	.	.	.	.	.
8BB/J	8B/J	.	.	.	.	.	.
=4	=4	=4	=4	=4	=4	=4	=4
8AA/L 8EE/	[>4b/	.	2r	.	.	.	.
8BB/	.	.	.	.	.	.	.
8D#/	16b/LL]	.	.	.	.	.	.
.	16a#X/	.	.	.	.	.	.
8BB/J	16an/	.	.	.	.	.	.
.	16f#/JJ	.	.	.	.	.	.
!!LO:LB:g=original
=5	=5	=5	=5	=5	=5	=5	=5
8GG#/L 8EE/	8e/L	.	2r	.	.	.	.
8BB/	16B/L	.	.	.	.	.	.
.	16B/JJ	.	.	.	.	.	.
8E/	8B/L	.	.	.	.	.	.
8BB/J	8B/J	.	.	.	.	.	.
=6	=6	=6	=6	=6	=6	=6	=6
8AA/L 8EE/	8f#/L	.	2r	.	.	.	.
8BB/	16B/L	.	.	.	.	.	.
.	16B/JJ	.	.	.	.	.	.
8D#/	8B/L	.	.	.	.	.	.
8BB/J	8B/J	.	.	.	.	.	.
=7	=7	=7	=7	=7	=7	=7	=7
8GG#/L 8EE/	8g#/L	.	2r	.	.	.	.
8BB/	16B/L	.	.	.	.	.	.
.	16B/JJ	.	.	.	.	.	.
8E/	8B/L	.	.	.	.	.	.
8BB/J	8B/J	.	.	.	.	.	.
=8	=8	=8	=8	=8	=8	=8	=8
8AA/L 8EE/	[>4b/	.	2r	.	.	.	.
8BB/	.	.	.	.	.	.	.
8D#/	16b/LL]	.	.	.	.	.	.
.	16a#X/	.	.	.	.	.	.
8BB/J	16an/	.	.	.	.	.	.
.	16f#/JJ	.	.	.	.	.	.
=9	=9	=9	=9	=9	=9	=9	=9
4E/ 4BB/ 4GG#/ 4EE/	4e/	.	2r	.	.	.	.
!	!LO:TX:i:b:t=Fine	!	!	!	!	!	!
4r	4r	.	.	.	.	.	.
!!LO:LB:g=original
=10||	=10||	=10||	=10||	=10||	=10||	=10||	=10||
*M4/4	*M4/4	*	*M4/4	*	*	*	*
*met(c)	*met(c)	*	*met(c)	*	*	*	*
4E/ 4EE/	8r	.	4.g#^>/	Rży	Tak,	Sły-	.
.	16e/LL 16B/ 16G#/	.	.	.	.	.	.
.	16e/JJ 16B/ 16G#/	.	.	.	.	.	.
4r	8e/L 8B/ 8G#/	.	.	.	.	.	.
.	8e/J 8B/ 8G#/	.	8e/	mój	tak	-szą	.
4E/ 4EE/	8r	.	4c#/	gnia-	do-	je-	.
.	16e/LL 16B/ 16G#/	.	.	.	.	.	.
.	16e/JJ 16B/ 16G#/	.	.	.	.	.	.
4r	8e/L 8B/ 8G#/	.	4B/	-dy,	-brze!	-szcze	.
.	8e/J 8B/ 8G#/	.	.	.	.	.	.
=11	=11	=11	=11	=11	=11	=11	=11
4E/ 4EE/	8r	.	4.b^\	zie-	na	sióstr	.
.	16e/LL 16B/ 16G#/	.	.	.	.	.	.
.	16e/JJ 16B/ 16G#/	.	.	.	.	.	.
4r	8e/L 8B/ 8G#/	.	.	.	.	.	.
.	8e/J 8B/ 8G#/	.	8g#/	-mię	za-	wo-	.
4E/ 4EE/	8r	.	4f#/	grze-	-wo-	-ła-	.
.	16e/LL 16B/ 16G#/	.	.	.	.	.	.
.	16e/JJ 16B/ 16G#/	.	.	.	.	.	.
4r	8e/L 8B/ 8G#/	.	4e/	-bie,	-dy!	-nie	.
.	8e/J 8B/ 8G#/	.	.	.	.	.	.
!!LO:LB:g=original
=12	=12	=12	=12	=12	=12	=12	=12
4E/ 4EE/	8r	.	4.ee^\	Puść-	Je-	Zwróć	.
.	16e/LL 16B/ 16G#/	.	.	.	.	.	.
.	16e/JJ 16B/ 16G#/	.	.	.	.	.	.
4r	8e/L 8B/ 8G#/	.	.	.	.	.	.
.	8e/J 8B/ 8G#/	.	8e/	-cie	-śli	się	.
4E/ 4EE/	8r	.	4.cc#^^\	czas	po-	ko-	.
.	16e/LL 16c#/ 16F#/	.	.	.	.	.	.
.	16e/JJ 16c#/ 16F#/	.	.	.	.	.	.
4r	8e/L 8c#/ 8F#/	.	.	.	.	.	.
.	8e/J 8c#/ 8F#/	.	8a#X\	już	-lec	-niu	.
=13	=13	=13	=13	=13	=13	=13	=13
*	*	*	*2\right	*	*	*	*
4E/ 4EE/	8r	.	2b\	czas!	mam;	stój!	.
.	16e/LL 16B/ 16G#/	.	.	.	.	.	.
.	16e/JJ 16B/ 16G#/	.	.	.	.	.	.
4r	8e/L 8B/ 8G#/	.	.	.	.	.	.
.	8e/J 8B/ 8G#/	.	.	.	.	.	.
4GG#/	8r	.	2r	.	.	.	.
.	8e/ 8B/ 8G#/	.	.	.	.	.	.
4EE/	8r	.	.	.	.	.	.
.	8e/ 8B/ 8G#/	.	.	.	.	.	.
!!LO:PB:g=original
=14	=14	=14	=14	=14	=14	=14	=14
4BB/ 4BBB/	8r	.	4.f#/	Cie-	Sam	Nie	.
.	16d#/LL 16B/ 16A/	.	.	.	.	.	.
.	16d#/JJ 16B/ 16A/	.	.	.	.	.	.
4r	8d#/L 8B/ 8A/	.	.	.	.	.	.
.	8d#/J 8B/ 8A/	.	8f#/	-bie	tu	chcesz?	.
4BB/ 4BBB/	8r	.	4g#/	oj-	ko-	Leć-	.
.	8d#/ 8B/ 8A/	.	.	.	.	.	.
4BB/ 4BBB/	8r	.	4f#/	-cze	-niu	-że	.
.	8d#/ 8B/ 8A/	.	.	.	.	.	.
=15	=15	=15	=15	=15	=15	=15	=15
4E/ 4EE/	8r	.	4.e/	Mat-	do	Niech	.
.	16e/LL 16B/ 16G#/	.	.	.	.	.	.
.	16e/JJ 16B/ 16G#/	.	.	.	.	.	.
4r	8e/L 8B/ 8G#/	.	.	.	.	.	.
.	8e/J 8B/ 8G#/	.	8g#/	-ko	za-	się	.
4E/ 4EE/	8r	.	4cc#^\	cie-	-gro-	sta-	.
.	8e/ 8B/ 8G#/	.	.	.	.	.	.
4E/ 4EE/	8r	.	4b\	-bie	-dy	-nie	.
.	8e/ 8B/ 8G#/	.	.	.	.	.	.
!!LO:LB:g=original
=16	=16	=16	=16	=16	=16	=16	=16
4BB/ 4BBB/	8r	.	4.f#/	Sio-	Wol-	Leć	.
.	16d#/LL 16B/ 16A/	.	.	.	.	.	.
.	16d#/JJ 16B/ 16A/	.	.	.	.	.	.
4r	8d#/L 8B/ 8A/	.	.	.	.	.	.
.	8d#/J 8B/ 8A/	.	8f#/	-stry	-ny	na	.
4BB/ 4BBB/	8r	.	4b^/	że-	wróć	krwa-	.
.	8d#/ 8B/ 8A/	.	.	.	.	.	.
4BB/ 4BBB/	8r	.	4a/	-gnam	tu	-wy	.
.	8d#/ 8B/ 8A/	.	.	.	.	.	.
=17	=17	=17	=17	=17	=17	=17	=17
4BB#X/ 4BBB#X/	8r	.	2g#/	was!	sam,	bój!	.
.	16f#/LL 16d#/ 16G#/	.	.	.	.	.	.
.	16f#/JJ 16d#/ 16G#/	.	.	.	.	.	.
4r	8f#/L 8d#/ 8G#/	.	.	.	.	.	.
.	8f#/J 8d#/ 8G#/	.	.	.	.	.	.
4C#/ 4CC#/	8r	.	2r	.	.	.	.
.	8e/ 8c#/ 8F#/	.	.	.	.	.	.
4BBn/ 4BBBn/	8r	.	.	.	.	.	.
.	8e#X/ 8dn/ 8G#/	.	.	.	.	.	.
!!LO:LB:g=original
=18	=18	=18	=18	=18	=18	=18	=18
!	!	!LO:DY:rj:t=p.	!	!	!	!	!
2AA/ 2AAA/	8r	p	4.f#/	Cie-	Sam	Nie	.
.	16f#/LL 16c#/ 16F#/	.	.	.	.	.	.
.	16f#/JJ 16c#/ 16F#/	.	.	.	.	.	.
.	8f#/L 8c#/ 8F#/	.	.	.	.	.	.
.	.	<	.	.	.	.	.
.	8f#/J 8c#/ 8F#/	.	8f#/	-bie	tu	chcesz?	.
2GG#/ 2GGG#/	8r	.	4.g#/	Oj-	ko-	Leć-	.
.	16g#/LL 16e#X/ 16c#/	.	.	.	.	.	.
.	16g#/JJ 16e#/ 16c#/	.	.	.	.	.	.
.	8g#/L 8e#/ 8c#/	.	.	.	.	.	.
.	8g#/J 8e#/ 8c#/	.	8g#/	-cze	-niu	-że	.
=19	=19	=19	=19	=19	=19	=19	=19
4FF#/ 4FFF#/	8r	.	4.a/	Ma-	do	Niech	.
.	8a/ 8f#/ 8c#/	.	.	.	.	.	.
4EE/ 4EEE/	8r	.	.	.	.	.	.
!	!LO:TX:i:b:t=poco rit(enuto).	!	!	!	!	!	!
.	8a#X/ 8gn/ 8c#/	.	8a#X/	-tko	za-	się	.
4DD#/ 4DDD#/	8r	.	4b^>/	cie-	-gro-	sta-	.
.	8b/ 8f#/ 8B/	.	.	.	.	.	.
4DD#/ 4DDD#/	8r	.	4an/	-bie	-dy	-nie	.
.	8an/ 8f#/ 8B/	.	.	.	.	.	.
!!LO:LB:g=original
=20	=20	=20	=20	=20	=20	=20	=20
!	!LO:TX:i:b:t=in tempo	!LO:DY:rj	!	!	!	!	!LO:DY:rj:b
4EE/ 4EEE/	8r	f	4.g#/	Sios-	wol-	Leć	f
.	8g#/ 8e/ 8B/	.	.	.	.	.	.
4GG#/ 4GGG#/	8r	.	.	.	.	.	.
.	8g#/ 8e/ 8B/	.	8e/	-stry	-ny	na	.
2BB/ 2BBB/	8r	.	4.g#^>/	że-	wróć	krwa-	.
.	16g#/LL 16d#/ 16A/	.	.	.	.	.	.
.	16g#/JJ 16d#/ 16A/	.	.	.	.	.	.
.	8g#/L 8d#/ 8A/	.	.	.	.	.	.
.	8f#/J 8d#/ 8A/	.	8f#/	-gnam	tu	-wy	.
=21	=21	=21	=21	=21	=21	=21	=21
*M2/4	*M2/4	*	*M2/4	*	*	*	*
8GG#/L 8EE/	8e/L 8G#'/	.	4e/	was!	sam,	bój!	.
8BB/	16B'/L	.	.	.	.	.	.
.	16B'/JJ	.	.	.	.	.	.
8E/	8B'/L	.	4r	.	.	.	.
8BB/J	8B'/J	.	.	.	.	.	.
!LO:TX:b:t=[segno]	!LO:TX:a:t=[segno]	!	!LO:TX:a:t=[segno]	!	!	!	!
!	!LO:TX:b:i:t=Da Capo \nal Fine	!	!	!	!	!	!
==	==	==	==	==	==	==	==
*-	*-	*-	*-	*-	*-	*-	*-
!!!system-decoration: s1{(s2,s3)}
!!!RDF**kern: > = above
!!!RDF**kern: < = below
!!!EED: Leszek Kubiak
!!!EST: 2021-04-13
!!!ENC: Andrzej Gręziak
!!!END: 2021-04-06
